public/icons/Kreuz.svg

<?xml version="1.0" encoding="UTF-8" standalone="no"?>
<svg
   xmlns:dc="http://purl.org/dc/elements/1.1/"
   xmlns:cc="http://creativecommons.org/ns#"
   xmlns:rdf="http://www.w3.org/1999/02/22-rdf-syntax-ns#"
   xmlns:svg="http://www.w3.org/2000/svg"
   xmlns="http://www.w3.org/2000/svg"
   xmlns:sodipodi="http://sodipodi.sourceforge.net/DTD/sodipodi-0.dtd"
   xmlns:inkscape="http://www.inkscape.org/namespaces/inkscape"
   inkscape:version="1.0 (4035a4fb49, 2020-05-01)"
   sodipodi:docname="Kreuz.svg"
   id="svg271"
   version="1.1"
   height="398.59457"
   width="398.59457"
   viewBox="0 0 298.94593 298.94593"
   style="isolation:isolate">
  <metadata
     id="metadata275">
    <rdf:RDF>
      <cc:Work
         rdf:about="">
        <dc:format>image/svg+xml</dc:format>
        <dc:type
           rdf:resource="http://purl.org/dc/dcmitype/StillImage" />
      </cc:Work>
    </rdf:RDF>
  </metadata>
  <sodipodi:namedview
     inkscape:current-layer="svg271"
     inkscape:window-maximized="0"
     inkscape:window-y="0"
     inkscape:window-x="0"
     inkscape:cy="209.29728"
     inkscape:cx="155.96394"
     inkscape:zoom="0.83276367"
     showgrid="false"
     id="namedview273"
     inkscape:window-height="480"
     inkscape:window-width="705"
     inkscape:pageshadow="2"
     inkscape:pageopacity="0"
     guidetolerance="10"
     gridtolerance="10"
     objecttolerance="10"
     borderopacity="1"
     bordercolor="#666666"
     pagecolor="#ffffff" />
  <defs
     id="defs257">
    <clipPath
       id="a">
      <path
         id="path254"
         d="M 0,0 H 1024 V 768 H 0 Z" />
    </clipPath>
  </defs>
  <g
     transform="translate(-395.02704,-227.02704)"
     id="g269"
     clip-path="url(#a)"
     fill-rule="evenodd">
    <path
       id="path259"
       fill="#ebebeb"
       d="m 559.158,379.388 45.682,-51.649 -19.315,-17.083 -42.694,48.271 -38.515,-48.271 -20.156,16.083 41.329,51.795 -41.329,46.727 19.315,17.083 38.34,-43.349 37.772,47.338 20.155,-16.082 z" />
    <path
       id="path261"
       d="m 559.158,379.388 45.682,-51.649 -19.315,-17.083 -42.694,48.271 -38.515,-48.271 -20.156,16.083 41.329,51.795 -41.329,46.727 19.315,17.083 38.34,-43.349 37.772,47.338 20.155,-16.082 z" />
    <path
       id="path263"
       fill="#ebebeb"
       d="m 432.517,277.454 c 54.665,-61.805 149.224,-67.602 211.029,-12.937 61.805,54.665 67.602,149.224 12.937,211.029 -54.665,61.805 -149.224,67.602 -211.029,12.937 -61.805,-54.665 -67.602,-149.224 -12.937,-211.029 z m 20.974,18.55 c 44.426,-50.229 121.275,-54.94 171.505,-10.513 50.229,44.426 54.94,121.275 10.513,171.505 -44.426,50.229 -121.275,54.94 -171.505,10.513 -50.229,-44.426 -54.94,-121.275 -10.513,-171.505 z" />
    <path
       id="path265"
       d="m 432.517,277.454 c 54.665,-61.805 149.224,-67.602 211.029,-12.937 61.805,54.665 67.602,149.224 12.937,211.029 -54.665,61.805 -149.224,67.602 -211.029,12.937 -61.805,-54.665 -67.602,-149.224 -12.937,-211.029 z m 20.974,18.55 c 44.426,-50.229 121.275,-54.94 171.505,-10.513 50.229,44.426 54.94,121.275 10.513,171.505 -44.426,50.229 -121.275,54.94 -171.505,10.513 -50.229,-44.426 -54.94,-121.275 -10.513,-171.505 z" />
    <path
       id="path267"
       d="m 432.517,277.454 c 54.665,-61.805 149.224,-67.602 211.029,-12.937 61.805,54.665 67.602,149.224 12.937,211.029 -54.665,61.805 -149.224,67.602 -211.029,12.937 -61.805,-54.665 -67.602,-149.224 -12.937,-211.029 z m 20.974,18.55 c 44.426,-50.229 121.275,-54.94 171.505,-10.513 50.229,44.426 54.94,121.275 10.513,171.505 -44.426,50.229 -121.275,54.94 -171.505,10.513 -50.229,-44.426 -54.94,-121.275 -10.513,-171.505 z" />
  </g>
</svg>

<?xml version="1.0" encoding="UTF-8" standalone="no"?><!-- Generator: Gravit.io --><svg xmlns="http://www.w3.org/2000/svg" xmlns:xlink="http://www.w3.org/1999/xlink" style="isolation:isolate" viewBox="0 0 1024 768" width="1024pt" height="768pt"><defs><clipPath id="_clipPath_BFoOyflxryQQB2vJMIRZrhNGdrHvPc47"><rect width="1024" height="768"/></clipPath></defs><g clip-path="url(#_clipPath_BFoOyflxryQQB2vJMIRZrhNGdrHvPc47)"><g><path d=" M 559.158 379.388 L 604.84 327.739 L 585.525 310.656 L 542.831 358.927 L 504.316 310.656 L 484.16 326.739 L 525.489 378.534 L 484.16 425.261 L 503.475 442.344 L 541.815 398.995 L 579.587 446.333 L 599.742 430.251 L 559.158 379.388 Z " fill-rule="evenodd" fill="rgb(235,235,235)"/><path d=" M 559.158 379.388 L 604.84 327.739 L 585.525 310.656 L 542.831 358.927 L 504.316 310.656 L 484.16 326.739 L 525.489 378.534 L 484.16 425.261 L 503.475 442.344 L 541.815 398.995 L 579.587 446.333 L 599.742 430.251 L 559.158 379.388 Z " fill-rule="evenodd" fill="rgb(0,0,0)"/><path d=" M 432.517 277.454 C 487.182 215.649 581.741 209.852 643.546 264.517 C 705.351 319.182 711.148 413.741 656.483 475.546 C 601.818 537.351 507.259 543.148 445.454 488.483 C 383.649 433.818 377.852 339.259 432.517 277.454 Z  M 453.491 296.004 C 497.917 245.775 574.766 241.064 624.996 285.491 C 675.225 329.917 679.936 406.766 635.509 456.996 C 591.083 507.225 514.234 511.936 464.004 467.509 C 413.775 423.083 409.064 346.234 453.491 296.004 Z " fill-rule="evenodd" fill="rgb(235,235,235)"/><path d=" M 432.517 277.454 C 487.182 215.649 581.741 209.852 643.546 264.517 C 705.351 319.182 711.148 413.741 656.483 475.546 C 601.818 537.351 507.259 543.148 445.454 488.483 C 383.649 433.818 377.852 339.259 432.517 277.454 Z  M 453.491 296.004 C 497.917 245.775 574.766 241.064 624.996 285.491 C 675.225 329.917 679.936 406.766 635.509 456.996 C 591.083 507.225 514.234 511.936 464.004 467.509 C 413.775 423.083 409.064 346.234 453.491 296.004 Z " fill-rule="evenodd" fill="rgb(0,0,0)"/><path d=" M 432.517 277.454 C 487.182 215.649 581.741 209.852 643.546 264.517 C 705.351 319.182 711.148 413.741 656.483 475.546 C 601.818 537.351 507.259 543.148 445.454 488.483 C 383.649 433.818 377.852 339.259 432.517 277.454 Z  M 453.491 296.004 C 497.917 245.775 574.766 241.064 624.996 285.491 C 675.225 329.917 679.936 406.766 635.509 456.996 C 591.083 507.225 514.234 511.936 464.004 467.509 C 413.775 423.083 409.064 346.234 453.491 296.004 Z " fill-rule="evenodd" fill="rgb(0,0,0)"/></g></g></svg>
